packages/dnb-ui-lib/assets/icons/calendar_medium.svg

<svg width="25" height="24" viewBox="0 0 25 24" fill="none" xmlns="http://www.w3.org/2000/svg">
<path fill-rule="evenodd" clip-rule="evenodd" d="M6.75195 0C7.16617 0 7.50195 0.335786 7.50195 0.75V3H16.502V0.75C16.502 0.335786 16.8377 0 17.252 0C17.6662 0 18.002 0.335786 18.002 0.75V3H21.752C22.9946 3 24.002 4.00736 24.002 5.25V9.75V21.75C24.002 22.9926 22.9946 24 21.752 24H2.25195C1.00931 24 0.00195312 22.9926 0.00195312 21.75V9.75V5.25C0.00195312 4.00736 1.00931 3 2.25195 3H6.00195V0.75C6.00195 0.335786 6.33774 0 6.75195 0ZM16.502 4.5V6C16.502 6.41421 16.8377 6.75 17.252 6.75C17.6662 6.75 18.002 6.41421 18.002 6V4.5H21.752C22.1662 4.5 22.502 4.83579 22.502 5.25V9H1.50195V5.25C1.50195 4.83579 1.83774 4.5 2.25195 4.5H6.00195V6C6.00195 6.41421 6.33774 6.75 6.75195 6.75C7.16617 6.75 7.50195 6.41421 7.50195 6V4.5H16.502ZM1.50195 10.5H22.502V21.75C22.502 22.1642 22.1662 22.5 21.752 22.5H2.25195C1.83774 22.5 1.50195 22.1642 1.50195 21.75V10.5Z" fill="black"/>
</svg>

<svg width="24" height="24" viewBox="0 0 25 24" fill="none" xmlns="http://www.w3.org/2000/svg"><path fill-rule="evenodd" clip-rule="evenodd" d="M6.752 0a.75.75 0 01.75.75V3h9V.75a.75.75 0 111.5 0V3h3.75a2.25 2.25 0 012.25 2.25v16.5a2.25 2.25 0 01-2.25 2.25h-19.5a2.25 2.25 0 01-2.25-2.25V5.25A2.25 2.25 0 012.252 3h3.75V.75a.75.75 0 01.75-.75zm9.75 4.5V6a.75.75 0 101.5 0V4.5h3.75a.75.75 0 01.75.75V9h-21V5.25a.75.75 0 01.75-.75h3.75V6a.75.75 0 001.5 0V4.5h9zm-15 6h21v11.25a.75.75 0 01-.75.75h-19.5a.75.75 0 01-.75-.75V10.5z" fill="#000"/></svg>
